X:521
T:Burning of The Piper's Hut, The
C:Joe Buchanan's Scottish Tome - Page 013.0
I:013 0
R:Reel
Z:Carl Allison
L:1/8
M:2/4
K:Bm
f | "Bm"B>c d>e | "Bm"f4 | "D"ee (e<a) | "D"e2 (ed) | "A"c2 A2 | "A"f2 A2 | "A"c>d e>f | "A"e (c<A) |
"Bm"B>c d>e | "Bm"f2 | "D"ee (e<a) | "D"e2 (ed) | "A"c2 A2 | f (e>d) | "Bm"c2 B2 | "Bm"B3 :|
f | "Bm"B>c d>e | "Bm"f2 B2 | "Bm"a2 B2 | "D"f2 (e>d) | "A"c2 A2 | "A"e2A2 | "A"c>d e>f | e (c<A) |
"Bm"B>c d>e | "Bm"f2B2 | "Bm"a2B2 | "D"f2 (e>d) | "A"c2 A2 | "F7"e2 (e>d) | "Bm"c2B2 | "Bm" B3 :|
f | "Bm"B>c d>e | "Bm"a>B B<B | "Bm"a>B B<B | "D"f2 (e>d) | "A"c2 A2 | e2 A2 | "A"c>d e>f | "A"e2 (c<A) |
"Bm"B>c d>e | "Bm"fB B/B/B | "Bm"a>B B<B | "D"f2 (e>d) | "A"c2 A2 | "F#m"f2 (e>d) | "Bm"c2 B2 | "Bm" B3 :|
f | "Bm"B>c d>e | "Bm"f>B B/B/B | "Bm"a>B B/B/B | "Bm"f>B B/B/B | "A"c>A A/A/A | "A"e>A A/A/A | "Bm"B>c d>e | "A"e2 (c<A) |
"Bm"B>c d>e | "Bm"fB B/B/B | "Bm"a>B B<B | "Bm"f2 (e>d) | "A"c2 A2 | "F#m"f2 (e>d) | "Bm"c2 B2 | "Bm" B3 :|
